X:1
T:Eripe me - Lassus
T:#
%%score [ 1 2 3 4 ]
L:1/8
Q:1/4=200
M:none
K:Eb
V:1 treble nm="Soprano" snm="S"
V:2 treble nm="Alto" snm="A"
V:3 treble-8 nm="Tenor" snm="T"
V:4 bass nm="Bass" snm="B"
V:1
"^Eripe me""^Orlando de Lassus\n(1530-94)" _d12 c4 | c8 B8 | z4 B4 B4 A4 | G8 c8 | z8 z4 c4 | %5
w: E- ri-|pe me|de- i- ni-|mi- cis,|de|
 c4 B4 (A2 G2 A2 F2 | c4) c4 z4 _d4 |[M:4/2] _d4 c4 B4 B4 | A8 F8 | z8 z4 e4 | e4 d4 f4 c4 | %11
w: i- ni- mi- * * *|* cis, de|i- ni- mi- cis|me- is,|de|i- ni- mi- cis,|
 z8 z4 c4 | c4 B4 A2 G2 (G4- | G2 FE F4) G8 | z4 c4 c4 B4 | A4 G8 (F4- | F2 =ED E4) (F6 G2 | %17
w: de|i- ni- mi- cis me\-|* * * * is,|de i- ni-|mi- cis me\-|* * * * is, *|
 A6 B2 c8) | z4 F8 =E4 | (=E6 F2 G8) | z16 | z4 c4 d4 (f4- | f2 =ed e4) f8- | f4 B4 z4 B4- | %24
w: |Do- mi-|ne, * *||ad te con\-|* * * * fu\-|* gi, ad|
 B4 A4 G4 (c4- | c2 BA B4) c8 | z16 | z16 | z8 F8- | F4 B4 A4 G4- | G4 B4 c8 | z4 B8 =A4 | %32
w: * te con- fu\-|* * * * gi:|||do\-|* ce me fa\-|* ce- re,|do- ce|
 B8 G4 c4 | c8 z4 A4- | A4 G4 c4 c4 | B8 A4 c4- | c4 B4 A8 | G4 (e6 d2 c4- | c2 BA B4) G4 A4- | %39
w: me fa- ce-|re vo\-|* lun- ta- tem|tu- am, vo\-|* lun- ta-|tem tu\- * *|* * * * am, vo\-|
 A4 G4 c4 c4 | B8 B8- | B8 z4 B4 | A4 c8 B4- | B4 (A6 GF G4) | c4 A8 F4 | f8 e8 | c8 c4 A4 | %47
w: * lun- ta- tem|tu- am,|* vo-|lun- ta- tem|* tu\- * * *|am, qui- a|De- us|me- us es|
 G4 G8 E4 | e12 c4 | B4 A4 (A8 | G8) E4 e4- | e4 c4 f8- | f4 f4 (e6 d2 | c4) B4 A4 F4- | %54
w: tu, qui- a|De- us|me- us es|* tu, qui\-|* a De\-|* us me\- *|* us es tu,|
 (F2 G2 A2 B2 c8) | A8 F4 (f4- | f2 e2 _d8 c4) | F4[Q:1/4=195] A8[Q:1/4=188] (G4- | %58
w: |qui- a De\-||us me- us|
[Q:1/4=185] G2[Q:1/4=183] F2[Q:1/4=179] F6[Q:1/4=175] =E[Q:1/4=174]D)[Q:1/4=171] E4 | %59
w: * * * * * es|
[Q:1/4=170] F16- | F16 |] %61
w: tu.||
V:2
 z8 A8- | A4 G4 G8 | F8 E8 | E4 D4 E8 | E4 D4 E8 | z4 E4 E4 _D4 | C8 F8 |[M:4/2] (E6 F2 G2 E2 G4) | %8
w: E\-|* ri- pe|me de-|i- ni- mi-|cis me- is,|de i- ni-|mi- cis|me\- * * * *|
 F8 A8- | A4 G4 G8 | (F6 E2 D4) E4 | E4 D4 E4 C4 | G8 E8 | C8 E4 D4 | C8 G8 | E8 C8 | %16
w: is, e\-|* ri- pe|me * * de|i- ni- mi- cis|me- is,|de i- ni-|mi- cis|me- is,|
 z4 (C6 B,2 A,2 G,2 | F,6 G,2 A,2 B,2 C4- | C4) B,4 C8 | z4 G4 =E4 E4 | (F2 G2 A2 F2 G8) | %21
w: Do\- * * *||* mi- ne,|ad te con-|fu\- * * * *|
 C8 z4 F4 | A4 G4 (A6 G2 | F2 E2 D2 C2 B,8) | C8 z4 G4 | G4 G4 E8 | A,16 | z16 | z4 B,8 =A,4 | %29
w: gi, ad|te con- fu\- *||gi, ad|te con- fu-|gi:||do- ce|
 B,8 (C6 D2 | E4) _D4 C8 | z4 F4 =E4 (F4- | F2 _E2 D4) (C2 B,2 A,2 G,2 | A,4) C4 C8 | z8 z4 A4- | %35
w: me fa\- *|* ce- re,|do- ce me|* * * fa\- * * *|* ce- re|vo\-|
 A4 G4 F8 | (E6 B,2 _D2 C2 C2 B,A, | E2 F2 G4) G8- | G8 E8- | E8 z4 E4- | E4 D4 G8 | %41
w: * lun- ta-|tem * * * * * *|* * * tu\-|* am,|* vo\-|* lun- ta-|
 G4 (F4 E2 D2 D2 CB,) | (C6 D2 E8- | E8) z4 E4- | E4 C4 (_D2 C2 A4- | A4 G2 F2 A2 G2 A4) | %46
w: tem tu\- * * * * *|am, * *|* qui\-|* a De\- * *||
 E4 A8 F4 | B8 E4 G4- | G4 C4 z8 | E8 C4 c4- | c4 B4 G8 | E4 A8 (F4- | F2 G2 A2 B2 c6 B2 | %53
w: us, qui- a|De- us me\-|* us,|qui- a De\-|* us, qui-|a De- us||
 A4) G4 F4 (c2 B2) | (A2 G2 F6 =ED E4) | F8 z8 | (F6 G2 A4) (A4- | A2 G2 F4) E8 | C16 | _D16 | %60
w: * me- us es *||tu,|De\- * * us|* * * me-|us|es|
 C16 |] %61
w: tu.|
V:3
 z8 f8- | f4 e4 e8 | B8 z4 c4 | c4 B4 A4 A4 | G8 c4 A4- | A4 G4 c4 A4- | A4 G4 A8 | %7
w: E\-|* ri- pe|me de-|i- ni- mi- cis|me- is, de|* i- ni- mi\-|* cis me-|
[M:4/2][K:treble-8] A8 z8 | z4 _d8 c4 | c8 B8 | z4 B4 B4 A4 | G8 c4 e4 | e4 d4 c4 c4 | A8 G8 | %14
w: si,|e- ri-|pe me|de i- ni-|mi- cis, de|i- ni- mi- cis|me- is,|
 e8 e4 d4 | (c6 B2 A4) A4 | G8 F8 | z4 (c6 B2 A2 G2 | F6 G2 A4) G4 | G8 z4 c4 | d4 (f6 =ed e4) | %21
w: de i- ni-|mi\- * * cis|me- is,|Do\- * * *|* * * mi-|ne, ad|te con\- * * *|
 f12 B4 | z8 z4 c4 | d4 (f6 =ed e4) | f8 (_e6 dc | d8) z4 c4- | c4 _d4 c8 | (B6 A2 G4) =A4 | %28
w: fu- gi,|ad|te con\- * * *|fu- gi: * *|* do\-|* ce me|fa\- * * ce-|
 B4 _d8 c4 | _d8 z8 | z4 f4 =e4 (f4- | f2 e2 d4) B4 c4 | d4 f4 =e4 (f4- | f2 c2 g4) a4 f4 | e16- | %35
w: re, do- ce|me,|do- ce me|* * * fa- ce-|re, do- ce me|* * * fa- ce-|re|
 e8 z8 | z8 z4 c4- | c4 B4 e4 e4 | d8 c4 c4- | c4 B4 A8 | G8 e8 | B16 | z4 A8 G4 | c4 c4 B8 | %44
w: |vo\-|* lun- ta- tem|tu- am, vo\-|* lun- ta-|tem tu-|am,|vo- lun-|ta- tem tu-|
 A8 z8 | z8 z4 A4- | A4 F4 f8 | e8 c8 | G4 (A2 B2 c2 d2 e2 f2 | g4) c4 e4 f4 | e4 d4 z4 c4- | %51
w: am,|qui\-|* a De-|us, qui-|a De\- * * * * *|* us me- us|es tu, qui\-|
 c4 A4 _d8 | B4 (f2 g2 a2 g2 a4) | (e6 d2 c2 B2 A2 G2) | F8 G8 | F8 _d8- | d4 B4 f4 e4 | %57
w: * a De-|us me\- * * * *|us * * * * *|* es|tu, qui\-|* a De- us|
 (_d6 A2 c4) (B4- | B2 A2 A2 GF G8) | B16 | =A16 |] %61
w: me\- * * us||es|tu.|
V:4
 z16 | z16 | z16 | z8 z4 C,4 | C,4 B,,4 (A,,6 B,,2 | C,2 D,2 E,4) C,4 F,4 | F,4 E,4 _D,4 D,4 | %7
w: |||De|i- ni- mi\- *|* * * cis, de|i- ni- mi- cis|
[M:4/2] A,,8 E,8 | z8 F,8- | F,4 E,4 E,8 | B,,8 z4 C,4 | C,4 B,,4 A,,4 A,,4 | G,,8 C,8 | %13
w: me- is,|e\-|* ri- pe|me de|i- ni- mi- cis|me- is,|
 z4 C4 C4 B,4 | A,4 A,4 G,8 | C,16- | C,8 z4 (C4- | C2 B,2 A,2 G,2 F,6 E,2 | _D,4) D,4 C,8- | %19
w: de i- ni-|mi- cis me-|is,|* Do\-||* mi- ne,|
 C,16 | z8 z4 C4 | =A,4 A,4 (B,2 C2 _D2 B,2 | C8) F,8 | B,8 G,8 | F,8 (C6 B,A, | G,8) A,8 | %26
w: |ad|te con- fu\- * * *|* gi,|ad te|con- fu\- * *|* gi:|
 F,12 C,4 | D,4 E,8 C,4 | B,,8 z8 | z16 | z4 B,8 =A,4 | B,8 G,4 F,4 | B,8 z4 F,4- | F,4 =E,4 F,8 | %34
w: do- ce|me fa- ce-|re,||do- ce|me fa- ce-|re, do\-|* ce me|
 C6 C2 A,8 | z8 z4 A,4- | A,4 G,4 F,8 | (E,6 D,2 C,2 D,2 E,2 F,2 | G,8) (C,6 D,2 | E,8) A,,8 | %40
w: fa- ce- re|vo\-|* lun- ta-|tem * * * * *|* tu\- *|* am,|
 z8 z4 E,4- | E,4 D,4 G,4 G,4 | F,8 E,8- | E,16 | z4 F,8 _D,4 | _D8 C8 | z16 | z8 z4 C,4- | %48
w: vo\-|* lun- ta- tem|tu- am,||qui- a|De- us,||qui\-|
 C,4 A,,4 A,8 | G,4 A,8 F,4 | G,8 C,8 | z4 F,8 _D,4 | _D8 C4 A,4- | A,4 E,4 (F,6 G,2) | %54
w: * a De-|us me- us|es tu,|qui- a|De- us me\-|* us es *|
 (A,2 B,2 C4) C,8 | z4 _D,8 B,,4 | B,8 A,8 | (_D,8 E,8) | (F,6 E,=D, C,8) | B,,16 | F,16 |] %61
w: * * * tu,|qui- a|De- us|me\- *|us * * *|es|tu.|

